X:1
T:Pigeon on the Gate
M:4/4
L:1/8
R:reel
F:Catskills+Tunes.txt
K:Gmaj
D:Willie Kelly (Tue AM)
BEEE BEdE | BEEE dBAF | D2 (3 .D.D.D  ADFE | DEFA BAFA |
BEEE BEdE | BEEE dBAF | DEFA dfed | dBAF EFGA :|
Beed e3d | Bdef gfed | Bdd^c d3B | AFFF DEFA |
BA B/2c/2d efed | Bdef gbfg | gffe fdef |1 dBAF EFGA :|2 dBAF E4 ||
